X:401
T: Richu dongfang fang hongguang
N: C2018
O: China,Jiangsu Xinghua
S: III, 452]
N: Vivid
R: Haozi, Cheshui haozi]
M: 2/4
L: 1/16
K: D
e2edd2dB | B2BdF2F2 |
eeefe2dB | A4A4 |
FAAFA3F | A3Bd2d2 |
ezdBAFdB | ABFED2D2 |
F2FED2D2
F2FED2D2
eeeed2e2 | B2B2A4A4
AFABF3ED4
AFABF2F2
AFABF2F2
z8 | z8 | z8 | z8 | z8 | z8 |
AAABd2dB | A2^G2A4

@@@ Tune index: 6956
